!!!COA:	Josquin des Prez
!!!CDT:	~1450-1521/08/27
!!!OTL@@LAT: Homo quidam fecit cenam
!!!ONB: (2) Versus Venite, comedite
!!!AGN:	Motet
!!!SCT:	NJE 19.4
!!!SCA:	New Josquin Edition 19.4
!!!voices:	5
**kern	**kern	**kern	**kern	**kern
*staff5	*staff4	*staff3	*staff2	*staff1
*Ivox	*Ivox	*Ivox	*Ivox	*Ivox
*I"Bassus	*I"Tenor2	*I"Tenor1	*I"Altus	*I"Superius
*I'B	*I'T2	*I'T1	*I'A	*I'S
*clefF4	*clefGv2	*clefGv2	*clefGv2	*clefG2
*>A	*>A	*>A	*>A	*>A
*k[]	*k[]	*k[]	*k[]	*k[]
*M2/1	*M2/1	*M2/1	*M2/1	*M2/1
*met(O2)	*met(O2)	*met(O2)	*met(O2)	*met(O2)
=1-	=1-	=1-	=1-	=1-
0r	0r	0r	0c	[0cc
=2.	=2.	=2.	=2.	=2.
0r	0r	0r	1.c	0cc]
.	.	.	4B\	.
.	.	.	4A/	.
=3.	=3.	=3.	=3.	=3.
0r	0r	0r	2B\	0dd
.	.	.	2.G/	.
.	.	.	4A/	.
.	.	.	2B\	.
=4	=4	=4	=4	=4
0c	0r	0r	0c	[0cc
=5.	=5.	=5.	=5.	=5.
1.c	0r	0r	0r	0cc]
4B\	.	.	.	.
4A\	.	.	.	.
=6.	=6.	=6.	=6.	=6.
2B\	0r	0r	0r	0dd
2.G\	.	.	.	.
4A\	.	.	.	.
2B\	.	.	.	.
=7	=7	=7	=7	=7
0c	0r	0c	[0g	1ee
.	.	.	.	[1gg
=8.	=8.	=8.	=8.	=8.
0r	0G	0d	1g]	2gg\]
.	.	.	.	4ff\
.	.	.	.	4ee\
.	.	.	1G	2dd\
.	.	.	.	2gg\
=9.	=9.	=9.	=9.	=9.
0r	0A	0c	2.c\	2ff\
.	.	.	.	1ee
.	.	.	4d\	.
.	.	.	2.e\	.
.	.	.	.	4dd\
.	.	.	4f\	4cc\
=10	=10	=10	=10	=10
0r	0G	0r	1g	[0b
.	.	.	[1G	.
=11.	=11.	=11.	=11.	=11.
0r	0r	0d	2G/]	0b]
.	.	.	2A/	.
.	.	.	1B	.
=12.	=12.	=12.	=12.	=12.
2r	0A	0e	0c	1r
1c	.	.	.	.
.	.	.	.	1cc
4B\	.	.	.	.
4A\	.	.	.	.
=13	=13	=13	=13	=13
2.G\	0B	0r	0r	2.dd\
4F\	.	.	.	4ee\
2D\	.	.	.	2ff\
2G\	.	.	.	[2gg\
=14.	=14.	=14.	=14.	=14.
0C	0r	0c	2.c\	4gg\]
.	.	.	.	4ff\
.	.	.	.	1ee
.	.	.	4d\	.
.	.	.	4e\	.
.	.	.	4f\	.
.	.	.	[2g\	4dd\
.	.	.	.	4cc\
=15.	=15.	=15.	=15.	=15.
0r	0G	0d	1.g]	2b\
.	.	.	.	1cc
.	.	.	[2g\	2b\
=16	=16	=16	=16	=16
0r	0A	0c	2g\]	2cc\
.	.	.	4f#i\	1ee
.	.	.	4e\	.
.	.	.	1f#i	.
.	.	.	.	4dd\
.	.	.	.	4cc\
=17.	=17.	=17.	=17.	=17.
1r	0G	0r	0g	0b
1G	.	.	.	.
=18.	=18.	=18.	=18.	=18.
2A\	0r	0f	0r	1a
1F	.	.	.	.
.	.	.	.	[1cc
4E\	.	.	.	.
4D\	.	.	.	.
=19	=19	=19	=19	=19
0C	0c	0e	0r	2cc\]
.	.	.	.	4b\
.	.	.	.	4a/
.	.	.	.	1g
=20.	=20.	=20.	=20.	=20.
0G	0B	0d	0r	1r
.	.	.	.	1dd
=21.	=21.	=21.	=21.	=21.
0r	0A	0r	1.c	1ee
.	.	.	.	[1cc
.	.	.	4d\	.
.	.	.	4e\	.
=22	=22	=22	=22	=22
0r	0r	0f	1f	2cc\]
.	.	.	.	4dd\
.	.	.	.	4ee\
.	.	.	1d	1ff
=23.	=23.	=23.	=23.	=23.
0r	0c	0g	2e\	1ee
.	.	.	1c	.
.	.	.	.	[1gg
.	.	.	4B\	.
.	.	.	4A/	.
=24.	=24.	=24.	=24.	=24.
1r	0d	0r	0G	2gg\]
.	.	.	.	4ff\
.	.	.	.	4ee\
1G	.	.	.	1dd
=25	=25	=25	=25	=25
2A\	0r	0a	1c	1cc
1F	.	.	.	.
.	.	.	1d	1ff
4E\	.	.	.	.
4D\	.	.	.	.
=26.	=26.	=26.	=26.	=26.
1E	0e	0g	1B	1gg
1C	.	.	1c	1ee
=27.	=27.	=27.	=27.	=27.
1D	0d	0f	1A	2r
.	.	.	.	1ff
1BB	.	.	1B	.
.	.	.	.	4ee\
.	.	.	.	4dd\
=28	=28	=28	=28	=28
0C	0c	0e	2G/	1ee
.	.	.	1c	.
.	.	.	.	[1gg
.	.	.	4B\	.
.	.	.	4A/	.
=29.	=29.	=29.	=29.	=29.
0r	0B	0r	0G	2gg\]
.	.	.	.	4ff\
.	.	.	.	4ee\
.	.	.	.	2dd\
.	.	.	.	[2dd\
=30.	=30.	=30.	=30.	=30.
0r	0r	0f	0r	2dd\]
.	.	.	.	4cc\
.	.	.	.	4b\
.	.	.	.	1a
=31	=31	=31	=31	=31
0r	0c	0c	1r	2g/
.	.	.	.	2.ee\
.	.	.	[1g	.
.	.	.	.	4dd\
.	.	.	.	[2cc\
=32.	=32.	=32.	=32.	=32.
0r	0G	0d	2g\]	2cc\]
.	.	.	2f\	4b\
.	.	.	.	4a/
.	.	.	2d\	1b
.	.	.	[2g\	.
=33.	=33.	=33.	=33.	=33.
1r	0A	0c	2g\]	2r
.	.	.	4f#i\	2.ee\
.	.	.	4e\	.
1c	.	.	1f#i	.
.	.	.	.	4dd\
.	.	.	.	[2cc\
=34	=34	=34	=34	=34
1d	0G	0r	0g	2cc\]
.	.	.	.	4b\
.	.	.	.	4a/
1d	.	.	.	1b
=35.	=35.	=35.	=35.	=35.
*M2/1	*	*	*	*
*met(3)	*	*	*	*
3.e\	0r	0c	0r	0cc
6d\	.	.	.	.
3e\	.	.	.	.
3c\	.	.	.	.
3A\	.	.	.	.
3c\	.	.	.	.
=36.	=36.	=36.	=36.	=36.
3.B\	0G	0G	0r	0r
6c\	.	.	.	.
3d\	.	.	.	.
3.G\	.	.	.	.
6A\	.	.	.	.
3B-i\	.	.	.	.
=37	=37	=37	=37	=37
3.F\	0D	0A	1r	0r
6G\	.	.	.	.
3A\	.	.	.	.
3D\	.	.	1f	.
3.F\	.	.	.	.
6E\	.	.	.	.
=38.	=38.	=38.	=38.	=38.
*M2/1	*	*	*	*
*met(O2)	*	*	*	*
0C	0E	0c	1e	1.g
.	.	.	[1g	.
.	.	.	.	2a/
=39.	=39.	=39.	=39.	=39.
0r	0G	0r	2g\]	2b\
.	.	.	4f\	2cc\
.	.	.	4e\	.
.	.	.	1d	1dd
=40	=40	=40	=40	=40
1r	0r	0G	0r	2r
.	.	.	.	1dd
1G	.	.	.	.
.	.	.	.	2b\
=41.	=41.	=41.	=41.	=41.
2F\	0D	0A	1r	2.dd\
2D\	.	.	.	.
.	.	.	.	4cc\
2.F\	.	.	1f	1a
4E\	.	.	.	.
=42.	=42.	=42.	=42.	=42.
1.C	0E	0c	2e\	0g
.	.	.	1g	.
2D\	.	.	2f\	.
=43	=43	=43	=43	=43
2E\	0G	0r	2e\	1r
2F\	.	.	4d\	.
.	.	.	4c\	.
1G	.	.	1B	1dd
=44.	=44.	=44.	=44.	=44.
0r	0r	1e	1c	2ee\
.	.	.	.	2cc\
.	.	1d	1G	2dd\
.	.	.	.	[2b\
=45.	=45.	=45.	=45.	=45.
0r	1B	1d	0r	4b\]
.	.	.	.	4cc\
.	.	.	.	2dd\
.	1A	1c	.	2ee\
.	.	.	.	[2cc\
=46	=46	=46	=46	=46
1F	1A	1r	0r	2cc\]
.	.	.	.	4b\
.	.	.	.	4a/
1G	1G	[1g	.	1b
=47.	=47.	=47.	=47.	=47.
1E	1r	1g]	1G	0r
1D	[1d	1f	1A	.
=48.	=48.	=48.	=48.	=48.
1G	1d]	1g	1B	0r
1A	1c	1e	2.c\	.
.	.	.	4B\	.
=49	=49	=49	=49	=49
1B	1d	0d	1G	1.dd
1G	1B	.	2r	.
.	.	.	2d\	4cc\
.	.	.	.	4b\
=50.	=50.	=50.	=50.	=50.
0r	0A	0c	2e\	2cc\
.	.	.	2c\	1ee
.	.	.	2e\	.
.	.	.	2f\	4dd\
.	.	.	.	4cc\
=51.	=51.	=51.	=51.	=51.
0r	0G	0d	1g	1b
.	.	.	2r	2r
.	.	.	2G/	2gg\
=52	=52	=52	=52	=52
0r	0A	0c	2.c\	2ff\
.	.	.	.	1ee
.	.	.	4d\	.
.	.	.	2e\	.
.	.	.	2f\	4dd\
.	.	.	.	4cc\
=53.	=53.	=53.	=53.	=53.
0r	0G	0r	2.g\	2b\
.	.	.	.	1cc
.	.	.	4f\	.
.	.	.	1d	.
.	.	.	.	2b\
=54.	=54.	=54.	=54.	=54.
1.C	0r	0r	0c	0cc
2D\	.	.	.	.
=55	=55	=55	=55	=55
2E\	0r	0r	1.G	0r
2F\	.	.	.	.
[1G	.	.	.	.
.	.	.	2A/	.
=56.	=56.	=56.	=56.	=56.
2G\]	0r	0r	2B\	0r
2A\	.	.	2c\	.
1B	.	.	1d	.
=57.	=57.	=57.	=57.	=57.
1.c	0r	0r	2e\	0r
.	.	.	2.g\	.
.	.	.	4f\	.
2B\	.	.	2d\	.
=58	=58	=58	=58	=58
1A	0r	0r	2c\	0r
.	.	.	2.e\	.
1A	.	.	.	.
.	.	.	4d\	.
.	.	.	2c\	.
=59.	=59.	=59.	=59.	=59.
1G	0r	0r	2B\	0r
.	.	.	2.d\	.
1F	.	.	.	.
.	.	.	4c\	.
.	.	.	2A/	.
=60.	=60.	=60.	=60.	=60.
2E\	0r	0r	2G/	0r
2C/	.	.	1c	.
1D	.	.	.	.
.	.	.	2B\	.
=61	=61	=61	=61	=61
!	!	!	!	!LO:TX:Z=10:t=Repetenda
0C	0r	1c	0c	1.cc
.	.	1g	.	.
.	.	.	.	4b\
.	.	.	.	4a/
!!LO:SEGNO
=62.	=62.	=62.	=62.	=62.
1G	1G	1r	0r	1b
1r	1d	1f	.	1a
=63.	=63.	=63.	=63.	=63.
1G	1r	1g	0r	2r
.	.	.	.	2b\
2.F\	1c	1a	.	2cc\
.	.	.	.	[2a/
4E\	.	.	.	.
=64	=64	=64	=64	=64
1D	1d	1f	1F	2a/]
.	.	.	.	4g/
.	.	.	.	4f/
1C	1e	1g	[1c	2e/
.	.	.	.	[2ee\
=65.	=65.	=65.	=65.	=65.
2r	1c	1e	2c\]	4ee\]
.	.	.	.	4dd\
2C/	.	.	4B\	2cc\
.	.	.	4A/	.
1G	1d	1d	2B\	1b
.	.	.	[2G/	.
=66.	=66.	=66.	=66.	=66.
2r	1B	1r	4G/]	1dd
.	.	.	4A/	.
2G\	.	.	2B\	.
1A	1A	2r	1c	2.cc\
.	.	2c\	.	.
.	.	.	.	4b\
=67	=67	=67	=67	=67
2F\	1r	1d	0r	4a/
.	.	.	.	4g/
2D\	.	.	.	2.a/
1E	2r	1c	.	.
.	.	.	.	4g/
.	2G/	.	.	[2g/
=68.	=68.	=68.	=68.	=68.
1D	1A	1r	1d	2g/]
.	.	.	.	2f#i/
2r	1G	2r	1B	1g
2G\	.	2d\	.	.
=69.	=69.	=69.	=69.	=69.
1F	1r	1f	0c	0r
2.c\	2r	1e	.	.
.	2A/	.	.	.
4B\	.	.	.	.
=70	=70	=70	=70	=70
1A	1c	1c	1e	1r
1G	1B	1r	2.g\	2r
.	.	.	.	[2dd\
.	.	.	4f\	.
=71.	=71.	=71.	=71.	=71.
0r	1G	2r	1d	4dd\]
.	.	.	.	4cc\
.	.	2G/	.	4b\
.	.	.	.	4a/
.	1r	[1A	1c	4cc\
.	.	.	.	4b\
.	.	.	.	4a/
.	.	.	.	4g/
=72.	=72.	=72.	=72.	=72.
0r	2r	1A]	0r	2.f#i/
.	2D/	.	.	.
.	.	.	.	4e/
.	[1E	1G	.	1g
=73	=73	=73	=73	=73
1G	1E]	2r	2r	1r
.	.	2c\	1g	.
1A	1D	[1d	.	2r
.	.	.	2f\	2a/
=74.	=74.	=74.	=74.	=74.
1G	2r	1d]	1g	1b
.	2G/	.	.	.
1r	[1A	1c	1e	[1cc
=75.	=75.	=75.	=75.	=75.
2r	1A]	1r	1f	2cc\]
2c\	.	.	.	4b\
.	.	.	.	4a/
1d	1G	2r	1g	2.b\
.	.	2d\	.	.
.	.	.	.	4cc\
=76	=76	=76	=76	=76
1d	1r	1f	0r	1dd
2.c\	2r	1e	.	2ee\
.	2A/	.	.	[2ee\
4B\	.	.	.	.
=77.	=77.	=77.	=77.	=77.
1A	1c	1c	1r	2ee\]
.	.	.	.	2cc\
1G	1B	1r	[1g	1dd
=78.	=78.	=78.	=78.	=78.
2r	1G	0g	1g]	2.b\
1G	.	.	.	.
.	.	.	.	4cc\
.	1r	.	1G	[1dd
4F\	.	.	.	.
4E\	.	.	.	.
=79	=79	=79	=79	=79
1D	0d	0f	1A	2dd\]
.	.	.	.	1ff
1BB	.	.	1B	.
.	.	.	.	4ee\
.	.	.	.	4dd\
=80.	=80.	=80.	=80.	=80.
0C	0c	1e	1G	2ee\
.	.	.	.	2.gg\
.	.	1c	1c	.
.	.	.	.	4ff\
.	.	.	.	2ee\
=81.	=81.	=81.	=81.	=81.
2.G\	1B	0d	2B\	1dd
.	.	.	2.G/	.
4A\	.	.	.	.
2B\	1G	.	.	2r
.	.	.	4A/	.
2G\	.	.	2B\	2gg\
=82	=82	=82	=82	=82
2.c\	0A	0c	2A/	2ff\
.	.	.	2.c\	1ee
4d\	.	.	.	.
2e\	.	.	.	.
.	.	.	4d\	.
2c\	.	.	2e\	4dd\
.	.	.	.	4cc\
=83.	=83.	=83.	=83.	=83.
1d	0G	0r	2d\	2.b\
.	.	.	[1.g	.
.	.	.	.	4cc\
2r	.	.	.	2dd\
2G\	.	.	.	[2ee\
=84.	=84.	=84.	=84.	=84.
2E\	0r	0r	2g\]	4ee\]
.	.	.	.	4dd\
2F\	.	.	4f\	1cc
.	.	.	4e\	.
1G	.	.	1d	.
.	.	.	.	2b\
!!LO:LB:i:g=z
!LO:TX:r:Y=20:t=Fine	!LO:TX:r:Y=20:t=Fine	!LO:TX:r:Y=20:t=Fine	!LO:TX:r:Y=20:t=Fine	!LO:TX:r:Y=20:t=Fine
==85	==85	==85	==85	==85
*>B	*>B	*>B	*>B	*>B
!!section: Versus: Venite, comedite panem meum
!!!OMD: Versus: Venite, comedite panem meum
*M2/1	*M2/1	*M2/1	*M2/1	*M2/1
*met(C|)	*met(C|)	*met(C|)	*met(C|)	*met(C|)
0C	0G	0c	0c	0cc
=86	=86	=86	=86	=86.
1.C	0r	0r	0r	0r
2BB/	.	.	.	.
=87	=87	=87	=87	=87.
1C	0r	0r	0r	0r
1D	.	.	.	.
=88	=88	=88	=88	=88
1.E	0r	0r	1.c	0r
2D\	.	.	2B\	.
=89	=89	=89	=89	=89.
1E	0r	0r	1c	0r
1F	.	.	1d	.
=90	=90	=90	=90	=90.
2E\	0r	0r	1.e	0r
1G	.	.	.	.
2F\	.	.	2d\	.
=91	=91	=91	=91	=91
2E\	0r	0r	1e	0r
2C/	.	.	.	.
1D	.	.	1f	.
=92	=92	=92	=92	=92.
2.E\	0r	0r	2e\	0r
.	.	.	1g	.
4F\	.	.	.	.
2G\	.	.	.	.
2A\	.	.	2f\	.
=93	=93	=93	=93	=93.
2G\	0r	0r	2e\	0r
1c	.	.	2c\	.
.	.	.	1d	.
2B\	.	.	.	.
=94	=94	=94	=94	=94
0c	0r	0c	1e	1r
.	.	.	1r	1e
=95	=95	=95	=95	=95.
0r	0r	0d	0r	2d/
.	.	.	.	1f
.	.	.	.	4e/
.	.	.	.	4d/
=96	=96	=96	=96	=96.
0r	0c	0e	1r	0c
.	.	.	1e	.
=97	=97	=97	=97	=97
0r	0d	0r	2d\	0r
.	.	.	1f	.
.	.	.	4e\	.
.	.	.	4d\	.
=98	=98	=98	=98	=98.
1r	0e	0r	0c	0r
1E	.	.	.	.
=99	=99	=99	=99	=99.
2D\	0r	0f	0r	0r
1F	.	.	.	.
4E\	.	.	.	.
4D\	.	.	.	.
=100	=100	=100	=100	=100
0C	0r	1e	0r	1r
.	.	1c	.	1e
=101	=101	=101	=101	=101.
0r	0f	0d	0r	2d/
.	.	.	.	1f
.	.	.	.	4e/
.	.	.	.	4d/
=102	=102	=102	=102	=102.
0r	1e	0e	1r	2c/
.	.	.	.	1g
.	1c	.	1e	.
.	.	.	.	2e/
=103	=103	=103	=103	=103
0r	0d	0r	2d\	4f/
.	.	.	.	4e/
.	.	.	1f	4d/
.	.	.	.	4c/
.	.	.	.	2.B/
.	.	.	4e\	.
.	.	.	4d\	4A/
=104	=104	=104	=104	=104.
1r	0e	0r	2c\	0c
.	.	.	1g	.
1E	.	.	.	.
.	.	.	4f\	.
.	.	.	4e\	.
=105	=105	=105	=105	=105.
1D	0r	0f	4f\	0r
.	.	.	4e\	.
.	.	.	4d\	.
.	.	.	4c\	.
1D	.	.	2.B\	.
.	.	.	4A/	.
=106	=106	=106	=106	=106
2C/	0r	1e	0c	0r
2.c\	.	.	.	.
.	.	1c	.	.
4d\	.	.	.	.
2e\	.	.	.	.
=107	=107	=107	=107	=107.
4f\	0f	0d	1r	0r
4e\	.	.	.	.
4d\	.	.	.	.
4c\	.	.	.	.
2.B\	.	.	1d	.
4A\	.	.	.	.
=108	=108	=108	=108	=108.
1c	1e	0c	1e	2r
.	.	.	.	2g/
1A	1c	.	1f	2a/
.	.	.	.	[2cc\
=109	=109	=109	=109	=109
0G	0d	0r	[0g	2cc\]
.	.	.	.	4b\
.	.	.	.	4a/
.	.	.	.	1b
=110	=110	=110	=110	=110.
0C	0c	0r	0g]	0cc
=111	=111	=111	=111	=111.
1r	0r	1d	1f	0r
2r	.	1c	2e\	.
2E\	.	.	2g\	.
=112	=112	=112	=112	=112
2D\	0r	1d	2.f\	0r
2BB/	.	.	.	.
.	.	.	4e\	.
2C/	.	1e	1c	.
2E\	.	.	.	.
=113	=113	=113	=113	=113.
2D\	1d	0r	0r	2r
2BB/	.	.	.	2f/
2C/	1c	.	.	2e/
2E\	.	.	.	2g/
=114	=114	=114	=114	=114.
2D\	1d	1r	1r	2.f/
2BB/	.	.	.	.
.	.	.	.	4e/
1C	1e	1g	2r	1c
.	.	.	2g\	.
=115	=115	=115	=115	=115
2r	0r	1a	2f\	1r
2F\	.	.	2d\	.
2E\	.	2g\	1e	2r
2C/	.	2e\	.	2g/
=116	=116	=116	=116	=116.
2D\	1r	1f	1r	2f/
2BB/	.	.	.	2d/
1C	1g	1e	2r	1e
.	.	.	2g\	.
=117	=117	=117	=117	=117.
2r	1a	0r	2f\	1r
2F\	.	.	2d\	.
2E\	2g\	.	1e	2r
2C/	2e\	.	.	2g/
=118	=118	=118	=118	=118
2D\	1f	1r	1d	2f/
2BB/	.	.	.	2d/
1C	1e	1e	1c	2e/
.	.	.	.	[2g/
=119	=119	=119	=119	=119.
0r	0r	1c	0r	2g/]
.	.	.	.	4f/
.	.	.	.	4e/
.	.	1d	.	2.f/
.	.	.	.	4e/
=120	=120	=120	=120	=120.
0r	1r	0e	1r	1c
.	1e	.	2r	1r
.	.	.	2g\	.
=121	=121	=121	=121	=121
0r	1c	1r	2e\	0r
.	.	.	2g\	.
.	1d	1f	2.f\	.
.	.	.	4e\	.
=122	=122	=122	=122	=122.
1C	0e	2e\	1c	1r
.	.	2.g\	.	.
[1G	.	.	1r	2.g/
.	.	4f\	.	.
.	.	[2e\	.	.
.	.	.	.	4a/
=123	=123	=123	=123	=123.
2G\]	1r	2e\]	0r	2b\
4F\	.	4d\	.	2cc\
4E\	.	4c\	.	.
1D	1f	2.B\	.	1dd
.	.	4A/	.	.
=124	=124	=124	=124	=124
2.C/	2e\	2c\	0g	0ee
.	2.g\	2.e\	.	.
4D\	.	.	.	.
2E\	.	.	.	.
.	4f\	4f\	.	.
2C/	[2e\	[2g\	.	.
=125	=125	=125	=125	=125.
2E\	2e\]	2g\]	1g	1r
2F\	4d\	4f\	.	.
.	4c\	4e\	.	.
1G	2.B\	1d	1g	1dd
.	4A/	.	.	.
=126	=126	=126	=126	=126.
1C	2c\	0c	2e\	2ee\
.	2.e\	.	2c\	2.gg\
2r	.	.	2.e\	.
.	4f\	.	.	4ff\
2C/	[2g\	.	.	2ee\
.	.	.	4f\	.
=127	=127	=127	=127	=127
2E\	2g\]	[0gl	1g	4ff\
.	.	.	.	4ee\
2F\	4f\	.	.	4dd\
.	4e\	.	.	4cc\
1G	1d	.	2r	2.b\
.	.	.	2g\	.
.	.	.	.	4a/
=128	=128	=128	=128	=128.
[0Cl	[0cl	0g_	2e\	[0ccl
.	.	.	2c\	.
.	.	.	2.e\	.
.	.	.	4f\	.
=129	=129	=129	=129	=129.
0C]	0c]	0g]	0gl	0cc]
!	!	!	!	!LO:TX:Z=20:t=Sequitur Repetenda a signo
=130||	=130||	=130||	=130||	=130||
*M2/1	*M2/1	*M2/1	*M2/1	*M2/1
*met(O2)	*met(O2)	*met(O2)	*met(O2)	*met(O2)
0C	0r	1c	0r	1.cc
.	.	1g	.	.
.	.	.	.	4b\
.	.	.	.	4a/
!LO:TX:rj:Y=20:t=D.S. al Fine	!LO:TX:rj:Y=20:t=D.S. al Fine	!LO:TX:rj:Y=20:t=D.S. al Fine	!LO:TX:rj:Y=20:t=D.S. al Fine	!LO:TX:rj:Y=40:t=D.S. al Fine
=||	=||	=||	=||	=||
*-	*-	*-	*-	*-
!!!RDF**kern: l=long note in original notation
!!!RDF**kern: i=editorial accidental
!!!ENC:	Jesse Rodin; Victoria Chang 2011/05/20
!!!END:	2011/05/20/
!!!EED:	Jesse Rodin
!!!EEV:	2011/08/18/
!!attribution-level@Jos: 2 (slightly less secure)
!!!ONB:	Translated from MusicXML and edited on 2011/08/18/ by Craig Sapp
!!muse2ps: u^(2) Versus: Venite, comedite^C^@{COM}{/}@{COA}?\n@{SCT}^I150v90,90,90,90,130i2I150Q16
